!! 00017] TT[TB
!! Zh. Ch. 1-1307 (560443) (J 845)
!!!OTL: Xinshang de ren
!!!ARE: Neimeng
!! Ethnic Group: Menggu
!! MM,
!!!SCT: C0708
!!!YEM: Copyright 1995, estate of Helmut Schaffrath.
**kern
*ICvox
*Ivox
*M2/4
*k[f#]
*G:
{8e
8b
8b
8a
=1
8g
8g
8a
16dd
16ee
=2
4.b
8dd
=3
8e
8b
8b
8a
=4
8g
8g
8a
16dd
16ee
=5
2b}
=6
{8e
8b
8b
16dd
16ee
=7
8.b
16a
8g
8e
=8
16e
16g
16e
16d
8B
8d
=9
8.e
16g
16b
16a
16g
16b
=10
2e}
=11
{8e
8b
8b
8a
=12
8g
8g
8a
16dd
16ee
=13
4.b
8dd
=14
8e
8b
8b
8a
=15
8g
8g
8a
16dd
16ee
=16
2b}
=17
{8e
8b
8b
8gg
=18
[2ee
=19
4.ee]
8r
=20
8.ee
16g
16b
16a
16g
16b
=21
2e}
=22
{8e
8b
8b
8a
=23
8g
8g
8a
16b
16a
=24
8b
16dd
16ee
8a
16b
16a
=25
8e
8b
8b
8a
=26
8g
8g
8a
16bb
16aa}
=27
{8a
16b
16dd
8ee
16dd
16b
=28
[2ee
=29
8ee]
4.r
=30
16e
16g
16e
16d
8B
8d
=31
8.e
16g
16b
16a
16g
16b
=32
2e}
=33
{8e
8b
8b
8a
=34
8g
8g
8a
16dd
16ee
=35
4.b
8ee
=36
8e
8b
8b
8a
=37
8g
8g
8a
16dd
16ee
=38
2b}
=39
{8e
8b
8b
8gg
=40
[2ee
=41
4.ee]
8r
=42
8.e
16g
16b
16a
16g
16b
=43
2e}
=44
{16e
16g
16e
16d
8B
8d
=45
8.e
16g
16b
16a
16g
16b
=46
[2ee
=47
2ee_
=48
2ee]}
==
!!!AGN: Liebeslied
!! Beilage kopiert mit Noten. Mehrstimmig (2-4 St. +1 St.) Klavier.
!!    Kodiert ist die Oberstimme. Tritt die Solostimme hinzu, ist diese
!!    angegeben. Pausen sind aufgefuellt mit Noten der 2. Stimme (Phr.5,
!!     T.1,2,4,5; Phr.8, T.1, der so Phr.4 (ebenfalls Solost.) gleicht.)
!!!ONB: ESAC (Essen Associative Code) Database: CHINA
!!!AMT: simple duple
!!!AIN: vox
!!!EED: Helmut Schaffrath
!!!EEV: 1.0
*-
!!!ONB: Tied note syntax fixed by Craig Sapp, 2004/05/03/
